assets/images/svg/svg-harvest.svg

<svg width="16" height="16" viewBox="0 0 16 16" fill="none" xmlns="http://www.w3.org/2000/svg">
<path d="M13.94 0C13.6483 0 13.3685 0.115892 13.1622 0.322182C12.9559 0.528472 12.84 0.808264 12.84 1.1V3.04C12.8269 3.99139 12.4397 4.89936 11.7622 5.56747C11.0847 6.23557 10.1715 6.61009 9.22 6.61H8.56999V1.1C8.56999 0.959488 8.54233 0.820347 8.48856 0.690529C8.43478 0.56071 8.35597 0.442754 8.25661 0.343395C8.15725 0.244037 8.03929 0.165223 7.90947 0.11145C7.77965 0.0576776 7.64051 0.0299988 7.5 0.0299988C7.35949 0.0299988 7.22035 0.0576776 7.09053 0.11145C6.96071 0.165223 6.84275 0.244037 6.74339 0.343395C6.64403 0.442754 6.56522 0.56071 6.51144 0.690529C6.45767 0.820347 6.42999 0.959488 6.42999 1.1V6.61H5.78C4.82151 6.63147 3.89364 6.27183 3.2 5.61C2.53194 4.92385 2.15255 4.00757 2.14 3.05V1.1C2.14 0.816221 2.02726 0.544059 1.8266 0.343395C1.62594 0.142731 1.35377 0.0299988 1.06999 0.0299988C0.78621 0.0299988 0.514064 0.142731 0.3134 0.343395C0.112736 0.544059 0 0.816221 0 1.1V3.04C0.0130183 4.56985 0.625841 6.0335 1.70671 7.11624C2.78758 8.19898 4.25018 8.81434 5.78 8.83H6.42999V14.22C6.42999 14.5038 6.54273 14.7759 6.74339 14.9766C6.94406 15.1773 7.21622 15.29 7.5 15.29C7.78378 15.29 8.05594 15.1773 8.25661 14.9766C8.45727 14.7759 8.56999 14.5038 8.56999 14.22V8.83H9.22C10.75 8.81183 12.2121 8.19598 13.2941 7.11406C14.376 6.03214 14.9918 4.56996 15.01 3.04V1.1C15.0101 0.813388 14.8983 0.538049 14.6985 0.3326C14.4987 0.127151 14.2265 0.00781673 13.94 0V0Z" fill="#B7B7B7"/>
</svg>

<svg width="16" height="16" fill="none" xmlns="http://www.w3.org/2000/svg">
  <path d="M13.94 0a1.1 1.1 0 0 0-1.1 1.1v1.94a3.62 3.62 0 0 1-3.62 3.57h-.65V1.1a1.07 1.07 0 1 0-2.14 0v5.51h-.65a3.62 3.62 0 0 1-2.58-1 3.74 3.74 0 0 1-1.06-2.56V1.1A1.07 1.07 0 0 0 0 1.1v1.94a5.84 5.84 0 0 0 5.78 5.79h.65v5.39a1.07 1.07 0 0 0 2.14 0V8.83h.65a5.86 5.86 0 0 0 5.79-5.79V1.1A1.1 1.1 0 0 0 13.94 0Z" fill="#B7B7B7"/>
</svg>
